Numix-Light/16/status/indicator-keyboard-Ps-2.svg

<?xml version="1.0" encoding="UTF-8" standalone="no"?>
<svg
   xmlns:dc="http://purl.org/dc/elements/1.1/"
   xmlns:cc="http://creativecommons.org/ns#"
   xmlns:rdf="http://www.w3.org/1999/02/22-rdf-syntax-ns#"
   xmlns:svg="http://www.w3.org/2000/svg"
   xmlns="http://www.w3.org/2000/svg"
   xmlns:sodipodi="http://sodipodi.sourceforge.net/DTD/sodipodi-0.dtd"
   xmlns:inkscape="http://www.inkscape.org/namespaces/inkscape"
   viewBox="0 0 16 16"
   id="svg2"
   version="1.1"
   inkscape:version="0.91 r13725"
   sodipodi:docname="indicator-keyboard-Ps-2.svg">
  <metadata
     id="metadata14">
    <rdf:RDF>
      <cc:Work
         rdf:about="">
        <dc:format>image/svg+xml</dc:format>
        <dc:type
           rdf:resource="http://purl.org/dc/dcmitype/StillImage" />
      </cc:Work>
    </rdf:RDF>
  </metadata>
  <defs
     id="defs12" />
  <sodipodi:namedview
     pagecolor="#ffffff"
     bordercolor="#666666"
     borderopacity="1"
     objecttolerance="10"
     gridtolerance="10"
     guidetolerance="10"
     inkscape:pageopacity="0"
     inkscape:pageshadow="2"
     inkscape:window-width="640"
     inkscape:window-height="480"
     id="namedview10"
     showgrid="false"
     inkscape:zoom="14.75"
     inkscape:cx="8"
     inkscape:cy="8"
     inkscape:window-x="65"
     inkscape:window-y="24"
     inkscape:window-maximized="0"
     inkscape:current-layer="svg2" />
  <path
     style="fill:#353535;fill-opacity:1"
     d="M 1.5996094 0 C 0.71320937 2.9605947e-16 0 0.71320937 0 1.5996094 L 0 14.400391 C 2.9605947e-16 15.286791 0.71320937 16 1.5996094 16 L 14.400391 16 C 15.286791 16 16 15.286791 16 14.400391 L 16 1.5996094 C 16 0.71320937 15.286791 0 14.400391 0 L 1.5996094 0 z M 3.9882812 4.8046875 C 4.8702813 4.8046875 5.5269844 4.9725937 5.9589844 5.3085938 C 6.3909844 5.6445937 6.6074219 6.1222344 6.6074219 6.7402344 C 6.6074219 7.0942344 6.5439688 7.3964375 6.4179688 7.6484375 C 6.2919688 7.8944375 6.1129062 8.0959531 5.8789062 8.2519531 C 5.6449063 8.4019531 5.3556719 8.5139375 5.0136719 8.5859375 C 4.6776719 8.6519375 4.2970938 8.6835937 3.8710938 8.6835938 L 3.0253906 8.6835938 L 3.0253906 11.095703 L 2.4140625 11.095703 L 2.4140625 4.9765625 C 2.6300625 4.9165625 2.8819219 4.8736094 3.1699219 4.8496094 C 3.4639219 4.8196094 3.7362813 4.8046875 3.9882812 4.8046875 z M 4.015625 5.3359375 C 3.787625 5.3359375 3.5916875 5.3452813 3.4296875 5.3632812 C 3.2736875 5.3752813 3.1393906 5.3864375 3.0253906 5.3984375 L 3.0253906 8.1523438 L 3.7988281 8.1523438 C 4.1288281 8.1523438 4.4254531 8.1356094 4.6894531 8.0996094 C 4.9594531 8.0576094 5.189 7.9848125 5.375 7.8828125 C 5.567 7.7748125 5.7124531 7.6274062 5.8144531 7.4414062 C 5.9164531 7.2554062 5.96875 7.0184688 5.96875 6.7304688 C 5.96875 6.4544687 5.910875 6.226875 5.796875 6.046875 C 5.688875 5.866875 5.5414687 5.7250469 5.3554688 5.6230469 C 5.1754688 5.5150469 4.968375 5.4404375 4.734375 5.3984375 C 4.500375 5.3564375 4.261625 5.3359375 4.015625 5.3359375 z M 8.9628906 6.3359375 C 9.2808906 6.3359375 9.5420937 6.3620156 9.7460938 6.4160156 C 9.9560936 6.4700156 10.1035 6.5185469 10.1875 6.5605469 L 10.052734 7.0820312 C 9.9807346 7.0460313 9.8575937 6.9975 9.6835938 6.9375 C 9.5155937 6.8775 9.2655469 6.8476563 8.9355469 6.8476562 C 8.8035469 6.8476562 8.6785938 6.8625781 8.5585938 6.8925781 C 8.4445937 6.9165781 8.3419531 6.9595312 8.2519531 7.0195312 C 8.1619531 7.0735313 8.0911094 7.144375 8.0371094 7.234375 C 7.9831094 7.318375 7.9550781 7.4247813 7.9550781 7.5507812 C 7.9550781 7.6767812 7.9793437 7.7830469 8.0273438 7.8730469 C 8.0753437 7.9630469 8.144375 8.0451875 8.234375 8.1171875 C 8.330375 8.1831875 8.4441719 8.2466406 8.5761719 8.3066406 C 8.7141719 8.3666406 8.8709219 8.4319063 9.0449219 8.5039062 C 9.2249219 8.5759062 9.3946406 8.6505156 9.5566406 8.7285156 C 9.7246406 8.8005156 9.8720469 8.8900469 9.9980469 8.9980469 C 10.124047 9.1000469 10.226688 9.2269531 10.304688 9.3769531 C 10.382688 9.5209531 10.421875 9.7037812 10.421875 9.9257812 C 10.421875 10.345781 10.261359 10.664859 9.9433594 10.880859 C 9.6313594 11.096859 9.2042031 11.203125 8.6582031 11.203125 C 8.2502031 11.203125 7.9367031 11.167703 7.7207031 11.095703 C 7.5047031 11.029703 7.3610625 10.979359 7.2890625 10.943359 L 7.4414062 10.412109 C 7.4594063 10.424109 7.4985937 10.444609 7.5585938 10.474609 C 7.6185937 10.498609 7.7007344 10.528453 7.8027344 10.564453 C 7.9047344 10.594453 8.0241094 10.622484 8.1621094 10.646484 C 8.3061094 10.670484 8.4722031 10.681641 8.6582031 10.681641 C 8.9942031 10.681641 9.268375 10.627531 9.484375 10.519531 C 9.706375 10.405531 9.8183594 10.217125 9.8183594 9.953125 C 9.8183594 9.827125 9.7978594 9.7189062 9.7558594 9.6289062 C 9.7198594 9.5389062 9.6564062 9.4587188 9.5664062 9.3867188 C 9.4764063 9.3147188 9.3570312 9.2456875 9.2070312 9.1796875 C 9.0630313 9.1136875 8.8820156 9.0353125 8.6660156 8.9453125 C 8.4920156 8.8733125 8.327875 8.8005156 8.171875 8.7285156 C 8.015875 8.6505156 7.8778125 8.56475 7.7578125 8.46875 C 7.6378125 8.36675 7.54075 8.2454219 7.46875 8.1074219 C 7.39675 7.9694219 7.3613281 7.8015156 7.3613281 7.6035156 C 7.3613281 7.2255156 7.5031563 6.9195469 7.7851562 6.6855469 C 8.0731563 6.4515469 8.4648906 6.3359375 8.9628906 6.3359375 z M 12.259766 8.7539062 C 12.653665 8.7539062 12.949538 8.851875 13.148438 9.046875 C 13.347338 9.237975 13.447266 9.5044563 13.447266 9.8476562 C 13.447266 9.9997563 13.419834 10.14475 13.365234 10.28125 C 13.310634 10.41385 13.236178 10.543169 13.142578 10.667969 C 13.052878 10.792769 12.949031 10.912297 12.832031 11.029297 C 12.715031 11.146297 12.595509 11.263859 12.474609 11.380859 C 12.373209 11.478359 12.275234 11.578288 12.177734 11.679688 C 12.084134 11.777187 11.997922 11.877116 11.919922 11.978516 C 11.845822 12.076016 11.785081 12.172031 11.738281 12.269531 C 11.695381 12.363131 11.673828 12.457181 11.673828 12.550781 L 11.673828 12.5625 L 13.585938 12.5625 L 13.585938 12.896484 L 11.251953 12.896484 C 11.251953 12.888684 11.250027 12.874969 11.246094 12.855469 L 11.246094 12.755859 C 11.246094 12.572559 11.279403 12.402094 11.345703 12.246094 C 11.412003 12.086194 11.496256 11.937275 11.597656 11.796875 C 11.702956 11.656475 11.818559 11.525197 11.943359 11.404297 C 12.072059 11.283397 12.1955 11.165834 12.3125 11.052734 C 12.41 10.959134 12.500138 10.869003 12.585938 10.783203 C 12.675637 10.693503 12.754013 10.603366 12.820312 10.509766 C 12.886612 10.416166 12.939516 10.316237 12.978516 10.210938 C 13.017516 10.105638 13.037109 9.9900344 13.037109 9.8652344 C 13.037109 9.5922344 12.962653 9.39825 12.814453 9.28125 C 12.670153 9.16035 12.487924 9.0996094 12.265625 9.0996094 C 12.140825 9.0996094 12.029141 9.1152844 11.931641 9.1464844 C 11.834141 9.1776844 11.747928 9.2149125 11.673828 9.2578125 C 11.603628 9.2968125 11.542888 9.3379594 11.492188 9.3808594 C 11.441488 9.4237594 11.404259 9.4570688 11.380859 9.4804688 L 11.181641 9.2167969 C 11.205041 9.1894969 11.246187 9.1503094 11.304688 9.0996094 C 11.367087 9.0450094 11.443503 8.9921062 11.533203 8.9414062 C 11.626803 8.8907063 11.734569 8.8476 11.855469 8.8125 C 11.976369 8.7735 12.111566 8.7539063 12.259766 8.7539062 z "
     id="path4" />
</svg>

<svg xmlns="http://www.w3.org/2000/svg" viewBox="0 0 16 16">
 <path d="m 1.6 0 c -0.886 0 -1.6 0.713 -1.6 1.6 l 0 12.801 c 0 0.886 0.713 1.6 1.6 1.6 l 12.801 0 c 0.886 0 1.6 -0.713 1.6 -1.6 l 0 -12.801 c 0 -0.886 -0.713 -1.6 -1.6 -1.6 l -12.801 0 z m 2.389 4.805 c 0.882 0 1.539 0.168 1.971 0.504 c 0.432 0.336 0.648 0.814 0.648 1.432 c 0 0.354 -0.063 0.656 -0.189 0.908 c -0.126 0.246 -0.305 0.448 -0.539 0.604 c -0.234 0.15 -0.523 0.262 -0.865 0.334 c -0.336 0.066 -0.717 0.098 -1.143 0.098 l -0.846 0 l 0 2.412 l -0.611 0 l 0 -6.119 c 0.216 -0.06 0.468 -0.103 0.756 -0.127 c 0.294 -0.03 0.566 -0.045 0.818 -0.045 z m 0.027 0.531 c -0.228 0 -0.424 0.009 -0.586 0.027 c -0.156 0.012 -0.29 0.023 -0.404 0.035 l 0 2.754 l 0.773 0 c 0.33 0 0.627 -0.017 0.891 -0.053 c 0.27 -0.042 0.5 -0.115 0.686 -0.217 c 0.192 -0.108 0.337 -0.255 0.439 -0.441 c 0.102 -0.186 0.154 -0.423 0.154 -0.711 c 0 -0.276 -0.058 -0.504 -0.172 -0.684 c -0.108 -0.18 -0.255 -0.322 -0.441 -0.424 c -0.18 -0.108 -0.387 -0.183 -0.621 -0.225 c -0.234 -0.042 -0.473 -0.063 -0.719 -0.063 z m 4.947 1 c 0.318 0 0.579 0.026 0.783 0.08 c 0.21 0.054 0.357 0.103 0.441 0.145 l -0.135 0.521 c -0.072 -0.036 -0.195 -0.085 -0.369 -0.145 c -0.168 -0.06 -0.418 -0.09 -0.748 -0.09 c -0.132 0 -0.257 0.015 -0.377 0.045 c -0.114 0.024 -0.217 0.067 -0.307 0.127 c -0.09 0.054 -0.161 0.125 -0.215 0.215 c -0.054 0.084 -0.082 0.19 -0.082 0.316 c 0 0.126 0.024 0.232 0.072 0.322 c 0.048 0.09 0.117 0.172 0.207 0.244 c 0.096 0.066 0.21 0.129 0.342 0.189 c 0.138 0.06 0.295 0.125 0.469 0.197 c 0.18 0.072 0.35 0.147 0.512 0.225 c 0.168 0.072 0.315 0.162 0.441 0.27 c 0.126 0.102 0.229 0.229 0.307 0.379 c 0.078 0.144 0.117 0.327 0.117 0.549 c 0 0.42 -0.161 0.739 -0.479 0.955 c -0.312 0.216 -0.739 0.322 -1.285 0.322 c -0.408 0 -0.721 -0.035 -0.938 -0.107 c -0.216 -0.066 -0.36 -0.116 -0.432 -0.152 l 0.152 -0.531 c 0.018 0.012 0.057 0.033 0.117 0.063 c 0.06 0.024 0.142 0.054 0.244 0.09 c 0.102 0.03 0.221 0.058 0.359 0.082 c 0.144 0.024 0.31 0.035 0.496 0.035 c 0.336 0 0.61 -0.054 0.826 -0.162 c 0.222 -0.114 0.334 -0.302 0.334 -0.566 c 0 -0.126 -0.021 -0.234 -0.063 -0.324 c -0.036 -0.09 -0.099 -0.17 -0.189 -0.242 c -0.09 -0.072 -0.209 -0.141 -0.359 -0.207 c -0.144 -0.066 -0.325 -0.144 -0.541 -0.234 c -0.174 -0.072 -0.338 -0.145 -0.494 -0.217 c -0.156 -0.078 -0.294 -0.164 -0.414 -0.26 c -0.12 -0.102 -0.217 -0.223 -0.289 -0.361 c -0.072 -0.138 -0.107 -0.306 -0.107 -0.504 c 0 -0.378 0.142 -0.684 0.424 -0.918 c 0.288 -0.234 0.68 -0.35 1.178 -0.35 z m 3.297 2.418 c 0.394 0 0.69 0.098 0.889 0.293 c 0.199 0.191 0.299 0.458 0.299 0.801 c 0 0.152 -0.027 0.297 -0.082 0.434 c -0.055 0.133 -0.129 0.262 -0.223 0.387 c -0.09 0.125 -0.194 0.244 -0.311 0.361 c -0.117 0.117 -0.237 0.235 -0.357 0.352 c -0.101 0.098 -0.199 0.197 -0.297 0.299 c -0.094 0.097 -0.18 0.197 -0.258 0.299 c -0.074 0.097 -0.135 0.194 -0.182 0.291 c -0.043 0.094 -0.064 0.188 -0.064 0.281 l 0 0.012 l 1.912 0 l 0 0.334 l -2.334 0 c 0 -0.008 -0.002 -0.022 -0.006 -0.041 l 0 -0.1 c 0 -0.183 0.033 -0.354 0.1 -0.51 c 0.066 -0.16 0.151 -0.309 0.252 -0.449 c 0.105 -0.14 0.221 -0.272 0.346 -0.393 c 0.129 -0.121 0.252 -0.238 0.369 -0.352 c 0.098 -0.094 0.188 -0.184 0.273 -0.27 c 0.09 -0.09 0.168 -0.18 0.234 -0.273 c 0.066 -0.094 0.119 -0.194 0.158 -0.299 c 0.039 -0.105 0.059 -0.221 0.059 -0.346 c 0 -0.273 -0.074 -0.467 -0.223 -0.584 c -0.144 -0.121 -0.327 -0.182 -0.549 -0.182 c -0.125 0 -0.236 0.016 -0.334 0.047 c -0.098 0.031 -0.184 0.068 -0.258 0.111 c -0.07 0.039 -0.131 0.08 -0.182 0.123 c -0.051 0.043 -0.088 0.076 -0.111 0.1 l -0.199 -0.264 c 0.023 -0.027 0.065 -0.066 0.123 -0.117 c 0.062 -0.055 0.139 -0.108 0.229 -0.158 c 0.094 -0.051 0.201 -0.094 0.322 -0.129 c 0.121 -0.039 0.256 -0.059 0.404 -0.059 z" style="fill:#353535;fill-opacity:1"/>
</svg>
